Candle/c1.svg

<svg xmlns="http://www.w3.org/2000/svg" viewBox="0 0 1200 800" preserveAspectRatio="none" width="1200" height="800">
 <title>
  ROOT canvas
 </title>
 <path d="M0,0H1200V800H0Z" style="fill: none;"></path>
 <g>
  <g transform="translate(120,80)">
   <title></title>
   <path d="M0,0H960V640H0Z" style="fill: white; stroke: black; stroke-width: 1;"></path>
   <svg x="0" y="0" overflow="hidden" width="960" height="640" viewBox="0 0 960 640">
    <g>
     <path d="M4,356v8h16v-8zM28,276v8h16v-8zM52,280v112h16v-112zM76,300v80h16v-80zM100,284v83h16v-83zM124,262v126h16v-126zM148,258v113h16v-113zM172,243v126h16v-126zM196,269v98h16v-98zM220,268v112h16v-112zM244,267v116h16v-116zM268,272v100h16v-100zM292,256v113h16v-113zM316,271v108h16v-108zM340,264v112h16v-112zM364,263v111h16v-111zM388,267v108h16v-108zM412,263v111h16v-111zM436,269v103h16v-103zM460,264v110h16v-110zM484,270v105h16v-105zM508,265v106h16v-106zM532,265v106h16v-106zM556,266v111h16v-111zM580,261v109h16v-109zM604,267v107h16v-107zM628,265v111h16v-111zM652,263v110h16v-110zM676,266v102h16v-102zM700,253v111h16v-111zM724,263v101h16v-101zM748,270v108h16v-108zM772,256v101h16v-101zM796,251v120h16v-120zM820,272v104h16v-104zM844,258v138h16v-138zM868,292v104h16v-104zM892,268v78h16v-78zM940,356v8h16v-8z" style="stroke: #00009a; stroke-width: 1; fill: none;"></path>
     <path d="M4,360h16M4,352h16M4,368h16M28,280h16M28,272h16M28,288h16M52,336h16M52,272h16M52,400h16M76,356h16M76,288h16M76,480h16M100,344h16M100,176h16M100,448h16M124,328h16M124,176h16M124,464h16M148,325h16M148,96h16M148,528h16M172,302h16M172,112h16M172,576h16M196,321h16M196,16h16M196,560h16M220,319h16M220,80h16M220,512h16M244,323h16M244,112h16M244,560h16M268,324h16M268,0h16M268,592h16M292,311h16M292,64h16M292,592h16M316,324h16M316,80h16M316,576h16M340,319h16M340,32h16M340,624h16M364,320h16M364,48h16M364,592h16M388,323h16M388,64h16M388,592h16M412,317h16M412,32h16M412,576h16M436,319h16M436,48h16M436,624h16M460,316h16M460,64h16M460,576h16M484,321h16M484,48h16M484,608h16M508,317h16M508,32h16M508,560h16M532,317h16M532,32h16M532,576h16M556,322h16M556,80h16M556,592h16M580,319h16M580,96h16M580,576h16M604,318h16M604,80h16M604,608h16M628,322h16M628,80h16M628,592h16M652,319h16M652,48h16M652,592h16M676,315h16M676,64h16M676,592h16M700,312h16M700,128h16M700,544h16M724,313h16M724,96h16M724,528h16M748,327h16M748,112h16M748,592h16M772,318h16M772,112h16M772,480h16M796,315h16M796,48h16M796,496h16M820,336h16M820,160h16M820,480h16M844,340h16M844,96h16M844,480h16M868,360h16M868,240h16M868,544h16M892,340h16M892,256h16M892,352h16M940,360h16M940,352h16M940,368h16" style="stroke: #00009a; stroke-width: 1; fill: none;"></path>
     <path d="M12,356v-4M12,364v4M36,276v-4M36,284v4M60,280v-8M60,392v8M84,300v-12M84,380v100M108,284v-108M108,367v81M132,262v-86M132,388v76M156,258v-162M156,371v157M180,243v-131M180,369v207M204,269v-253M204,367v193M228,268v-188M228,380v132M252,267v-155M252,383v177M276,272v-272M276,372v220M300,256v-192M300,369v223M324,271v-191M324,379v197M348,264v-232M348,376v248M372,263v-215M372,374v218M396,267v-203M396,375v217M420,263v-231M420,374v202M444,269v-221M444,372v252M468,264v-200M468,374v202M492,270v-222M492,375v233M516,265v-233M516,371v189M540,265v-233M540,371v205M564,266v-186M564,377v215M588,261v-165M588,370v206M612,267v-187M612,374v234M636,265v-185M636,376v216M660,263v-215M660,373v219M684,266v-202M684,368v224M708,253v-125M708,364v180M732,263v-167M732,364v164M756,270v-158M756,378v214M780,256v-144M780,357v123M804,251v-203M804,371v125M828,272v-112M828,376v104M852,258v-162M852,396v84M876,292v-52M876,396v148M900,268v-12M900,346v6M948,356v-4M948,364v4" style="stroke: #00009a; stroke-width: 1; stroke-dasharray: 3,3; fill: none;"></path>
     <path d="M8,360a4,4,0,1,0,8,0a4,4,0,1,0,-8,0zM32,280a4,4,0,1,0,8,0a4,4,0,1,0,-8,0zM56,336a4,4,0,1,0,8,0a4,4,0,1,0,-8,0zM80,356a4,4,0,1,0,8,0a4,4,0,1,0,-8,0zM104,331a4,4,0,1,0,8,0a4,4,0,1,0,-8,0zM128,326a4,4,0,1,0,8,0a4,4,0,1,0,-8,0zM152,318a4,4,0,1,0,8,0a4,4,0,1,0,-8,0zM176,310a4,4,0,1,0,8,0a4,4,0,1,0,-8,0zM200,318a4,4,0,1,0,8,0a4,4,0,1,0,-8,0zM224,324a4,4,0,1,0,8,0a4,4,0,1,0,-8,0zM248,325a4,4,0,1,0,8,0a4,4,0,1,0,-8,0zM272,323a4,4,0,1,0,8,0a4,4,0,1,0,-8,0zM296,313a4,4,0,1,0,8,0a4,4,0,1,0,-8,0zM320,323a4,4,0,1,0,8,0a4,4,0,1,0,-8,0zM344,319a4,4,0,1,0,8,0a4,4,0,1,0,-8,0zM368,319a4,4,0,1,0,8,0a4,4,0,1,0,-8,0zM392,321a4,4,0,1,0,8,0a4,4,0,1,0,-8,0zM416,319a4,4,0,1,0,8,0a4,4,0,1,0,-8,0zM440,320a4,4,0,1,0,8,0a4,4,0,1,0,-8,0zM464,318a4,4,0,1,0,8,0a4,4,0,1,0,-8,0zM488,322a4,4,0,1,0,8,0a4,4,0,1,0,-8,0zM512,317a4,4,0,1,0,8,0a4,4,0,1,0,-8,0zM536,318a4,4,0,1,0,8,0a4,4,0,1,0,-8,0zM560,322a4,4,0,1,0,8,0a4,4,0,1,0,-8,0zM584,317a4,4,0,1,0,8,0a4,4,0,1,0,-8,0zM608,319a4,4,0,1,0,8,0a4,4,0,1,0,-8,0zM632,321a4,4,0,1,0,8,0a4,4,0,1,0,-8,0zM656,318a4,4,0,1,0,8,0a4,4,0,1,0,-8,0zM680,319a4,4,0,1,0,8,0a4,4,0,1,0,-8,0zM704,313a4,4,0,1,0,8,0a4,4,0,1,0,-8,0zM728,312a4,4,0,1,0,8,0a4,4,0,1,0,-8,0zM752,323a4,4,0,1,0,8,0a4,4,0,1,0,-8,0zM776,314a4,4,0,1,0,8,0a4,4,0,1,0,-8,0zM800,307a4,4,0,1,0,8,0a4,4,0,1,0,-8,0zM824,330a4,4,0,1,0,8,0a4,4,0,1,0,-8,0zM848,328a4,4,0,1,0,8,0a4,4,0,1,0,-8,0zM872,362a4,4,0,1,0,8,0a4,4,0,1,0,-8,0zM896,317a4,4,0,1,0,8,0a4,4,0,1,0,-8,0zM944,360a4,4,0,1,0,8,0a4,4,0,1,0,-8,0z" style="stroke: #00009a; fill: none;"></path>
    </g>
   </svg>
   <g>
    <g transform="translate(0,640)">
     <path d="M0,0h960" style="stroke: black; stroke-width: 1;"></path>
     <path d="M0,-24v24m24,-12v12m24,-12v12m24,-12v12m24,-12v12m24,-24v24m24,-12v12m24,-12v12m24,-12v12m24,-12v12m24,-24v24m24,-12v12m24,-12v12m24,-12v12m24,-12v12m24,-24v24m24,-12v12m24,-12v12m24,-12v12m24,-12v12m24,-24v24m24,-12v12m24,-12v12m24,-12v12m24,-12v12m24,-24v24m24,-12v12m24,-12v12m24,-12v12m24,-12v12m24,-24v24m24,-12v12m24,-12v12m24,-12v12m24,-12v12m24,-24v24m24,-12v12m24,-12v12m24,-12v12m24,-12v12m24,-24v24" style="stroke: black; stroke-width: 1;"></path>
     <g font-family="Arial" font-size="28" space="preserve">
      <text fill="black" text-anchor="middle" dy=".8em" transform="translate(0,6)">
       -4
      </text>
      <text fill="black" text-anchor="middle" dy=".8em" transform="translate(120,6)">
       -3
      </text>
      <text fill="black" text-anchor="middle" dy=".8em" transform="translate(240,6)">
       -2
      </text>
      <text fill="black" text-anchor="middle" dy=".8em" transform="translate(360,6)">
       -1
      </text>
      <text fill="black" text-anchor="middle" dy=".8em" transform="translate(480,6)">
       0
      </text>
      <text fill="black" text-anchor="middle" dy=".8em" transform="translate(600,6)">
       1
      </text>
      <text fill="black" text-anchor="middle" dy=".8em" transform="translate(720,6)">
       2
      </text>
      <text fill="black" text-anchor="middle" dy=".8em" transform="translate(840,6)">
       3
      </text>
      <text fill="black" text-anchor="middle" dy=".8em" transform="translate(960,6)">
       4
      </text>
     </g>
    </g>
    <g>
     <path d="M0,0v640" style="stroke: black; stroke-width: 1;"></path>
     <path d="M36,640h-36m18,-16h-18m18,-16h-18m18,-16h-18m18,-16h-18m36,-16h-36m18,-16h-18m18,-16h-18m18,-16h-18m18,-16h-18m36,-16h-36m18,-16h-18m18,-16h-18m18,-16h-18m18,-16h-18m36,-16h-36m18,-16h-18m18,-16h-18m18,-16h-18m18,-16h-18m36,-16h-36m18,-16h-18m18,-16h-18m18,-16h-18m18,-16h-18m36,-16h-36m18,-16h-18m18,-16h-18m18,-16h-18m18,-16h-18m36,-16h-36m18,-16h-18m18,-16h-18m18,-16h-18m18,-16h-18m36,-16h-36m18,-16h-18m18,-16h-18m18,-16h-18m18,-16h-18m36,-16h-36" style="stroke: black; stroke-width: 1;"></path>
     <g font-family="Arial" font-size="28" space="preserve">
      <text fill="black" text-anchor="end" dy=".4em" transform="translate(-4,640)">
       -4
      </text>
      <text fill="black" text-anchor="end" dy=".4em" transform="translate(-4,560)">
       -3
      </text>
      <text fill="black" text-anchor="end" dy=".4em" transform="translate(-4,480)">
       -2
      </text>
      <text fill="black" text-anchor="end" dy=".4em" transform="translate(-4,400)">
       -1
      </text>
      <text fill="black" text-anchor="end" dy=".4em" transform="translate(-4,320)">
       0
      </text>
      <text fill="black" text-anchor="end" dy=".4em" transform="translate(-4,240)">
       1
      </text>
      <text fill="black" text-anchor="end" dy=".4em" transform="translate(-4,160)">
       2
      </text>
      <text fill="black" text-anchor="end" dy=".4em" transform="translate(-4,80)">
       3
      </text>
      <text fill="black" text-anchor="end" dy=".4em" transform="translate(-4)">
       4
      </text>
     </g>
    </g>
   </g>
  </g>
  <g transform="translate(120,4)" font-family="Arial" font-size="40" space="preserve">
   <path d="M0,0H960V53H0Z" style="fill: none;"></path>
   <text fill="black" text-anchor="middle" dy=".8em" transform="translate(480)">
    py vs px
   </text>
  </g>
  <g transform="translate(936,52)" font-family="Arial" font-size="20" space="preserve">
   <path d="M0,0H240V212H0Z" style="fill: white; stroke: black; stroke-width: 1;"></path>
   <text fill="black" text-anchor="middle" dy=".4em" transform="translate(120,18)">
    hpxpy
   </text>
   <text fill="black" text-anchor="start" dy=".4em" transform="translate(12,53)">
    Entries
   </text>
   <text fill="black" text-anchor="end" dy=".4em" transform="translate(228,53)">
    25000
   </text>
   <text fill="black" text-anchor="start" dy=".4em" transform="translate(12,88)">
    Mean x
   </text>
   <text fill="black" text-anchor="end" dy=".4em" transform="translate(228,88)">
    0.003181
   </text>
   <text fill="black" text-anchor="start" dy=".4em" transform="translate(12,124)">
    Mean y
   </text>
   <text fill="black" text-anchor="end" dy=".4em" transform="translate(228,124)">
    0.009441
   </text>
   <text fill="black" text-anchor="start" dy=".4em" transform="translate(12,159)">
    Std Dev x
   </text>
   <text fill="black" text-anchor="end" dy=".4em" transform="translate(228,159)">
    1.004
   </text>
   <text fill="black" text-anchor="start" dy=".4em" transform="translate(12,194)">
    Std Dev y
   </text>
   <text fill="black" text-anchor="end" dy=".4em" transform="translate(228,194)">
    0.9972
   </text>
   <path d="M0,35h240" style="stroke: black; stroke-width: 1;"></path>
  </g>
 </g>
</svg>

<svg xmlns="http://www.w3.org/2000/svg" viewBox="0 0 1200 800" preserveAspectRatio="none" width="1200" height="800">
 <title>
  ROOT canvas
 </title>
 <path d="M0,0H1200V800H0Z" style="fill: none;"></path>
 <g>
  <g transform="translate(120,80)">
   <title></title>
   <path d="M0,0H960V640H0Z" style="fill: white; stroke: black; stroke-width: 1;"></path>
   <svg x="0" y="0" overflow="hidden" width="960" height="640" viewBox="0 0 960 640">
    <g>
     <path d="M4,356V364H20V356ZM28,276V284H44V276ZM52,280V392H68V280ZM76,300V380H92V300ZM100,284V367H116V284ZM124,262V388H140V262ZM148,258V371H164V258ZM172,243V369H188V243ZM196,269V367H212V269ZM220,268V380H236V268ZM244,267V383H260V267ZM268,272V372H284V272ZM292,256V369H308V256ZM316,271V379H332V271ZM340,264V376H356V264ZM364,263V374H380V263ZM388,267V375H404V267ZM412,263V374H428V263ZM436,269V372H452V269ZM460,264V374H476V264ZM484,270V375H500V270ZM508,265V371H524V265ZM532,265V371H548V265ZM556,266V377H572V266ZM580,261V370H596V261ZM604,267V374H620V267ZM628,265V376H644V265ZM652,263V373H668V263ZM676,266V368H692V266ZM700,253V364H716V253ZM724,263V364H740V263ZM748,270V378H764V270ZM772,256V357H788V256ZM796,251V371H812V251ZM820,272V376H836V272ZM844,258V396H860V258ZM868,292V396H884V292ZM892,268V346H908V268ZM940,356V364H956V356Z" style="stroke: #00009a; stroke-width: 1; fill: none;"></path>
     <path d="M4,360H20M4,352H20M4,368H20M28,280H44M28,272H44M28,288H44M52,336H68M52,272H68M52,400H68M76,356H92M76,288H92M76,480H92M100,344H116M100,176H116M100,448H116M124,328H140M124,176H140M124,464H140M148,325H164M148,96H164M148,528H164M172,302H188M172,112H188M172,576H188M196,321H212M196,16H212M196,560H212M220,319H236M220,80H236M220,512H236M244,323H260M244,112H260M244,560H260M268,324H284M268,0H284M268,592H284M292,311H308M292,64H308M292,592H308M316,324H332M316,80H332M316,576H332M340,319H356M340,32H356M340,624H356M364,320H380M364,48H380M364,592H380M388,323H404M388,64H404M388,592H404M412,317H428M412,32H428M412,576H428M436,319H452M436,48H452M436,624H452M460,316H476M460,64H476M460,576H476M484,321H500M484,48H500M484,608H500M508,317H524M508,32H524M508,560H524M532,317H548M532,32H548M532,576H548M556,322H572M556,80H572M556,592H572M580,319H596M580,96H596M580,576H596M604,318H620M604,80H620M604,608H620M628,322H644M628,80H644M628,592H644M652,319H668M652,48H668M652,592H668M676,315H692M676,64H692M676,592H692M700,312H716M700,128H716M700,544H716M724,313H740M724,96H740M724,528H740M748,327H764M748,112H764M748,592H764M772,318H788M772,112H788M772,480H788M796,315H812M796,48H812M796,496H812M820,336H836M820,160H836M820,480H836M844,340H860M844,96H860M844,480H860M868,360H884M868,240H884M868,544H884M892,340H908M892,256H908M892,352H908M940,360H956M940,352H956M940,368H956" style="stroke: #00009a; stroke-width: 1; fill: none;"></path>
     <path d="M12,356V352M12,364V368M36,276V272M36,284V288M60,280V272M60,392V400M84,300V288M84,380V480M108,284V176M108,367V448M132,262V176M132,388V464M156,258V96M156,371V528M180,243V112M180,369V576M204,269V16M204,367V560M228,268V80M228,380V512M252,267V112M252,383V560M276,272V0M276,372V592M300,256V64M300,369V592M324,271V80M324,379V576M348,264V32M348,376V624M372,263V48M372,374V592M396,267V64M396,375V592M420,263V32M420,374V576M444,269V48M444,372V624M468,264V64M468,374V576M492,270V48M492,375V608M516,265V32M516,371V560M540,265V32M540,371V576M564,266V80M564,377V592M588,261V96M588,370V576M612,267V80M612,374V608M636,265V80M636,376V592M660,263V48M660,373V592M684,266V64M684,368V592M708,253V128M708,364V544M732,263V96M732,364V528M756,270V112M756,378V592M780,256V112M780,357V480M804,251V48M804,371V496M828,272V160M828,376V480M852,258V96M852,396V480M876,292V240M876,396V544M900,268V256M900,346V352M948,356V352M948,364V368" style="stroke: #00009a; stroke-width: 1; stroke-dasharray: 3,3; fill: none;"></path>
     <path d="M8,360a4,4,0,1,0,8,0a4,4,0,1,0,-8,0zM32,280a4,4,0,1,0,8,0a4,4,0,1,0,-8,0zM56,336a4,4,0,1,0,8,0a4,4,0,1,0,-8,0zM80,356a4,4,0,1,0,8,0a4,4,0,1,0,-8,0zM104,331a4,4,0,1,0,8,0a4,4,0,1,0,-8,0zM128,326a4,4,0,1,0,8,0a4,4,0,1,0,-8,0zM152,318a4,4,0,1,0,8,0a4,4,0,1,0,-8,0zM176,310a4,4,0,1,0,8,0a4,4,0,1,0,-8,0zM200,318a4,4,0,1,0,8,0a4,4,0,1,0,-8,0zM224,324a4,4,0,1,0,8,0a4,4,0,1,0,-8,0zM248,325a4,4,0,1,0,8,0a4,4,0,1,0,-8,0zM272,323a4,4,0,1,0,8,0a4,4,0,1,0,-8,0zM296,313a4,4,0,1,0,8,0a4,4,0,1,0,-8,0zM320,323a4,4,0,1,0,8,0a4,4,0,1,0,-8,0zM344,319a4,4,0,1,0,8,0a4,4,0,1,0,-8,0zM368,319a4,4,0,1,0,8,0a4,4,0,1,0,-8,0zM392,321a4,4,0,1,0,8,0a4,4,0,1,0,-8,0zM416,319a4,4,0,1,0,8,0a4,4,0,1,0,-8,0zM440,320a4,4,0,1,0,8,0a4,4,0,1,0,-8,0zM464,318a4,4,0,1,0,8,0a4,4,0,1,0,-8,0zM488,322a4,4,0,1,0,8,0a4,4,0,1,0,-8,0zM512,317a4,4,0,1,0,8,0a4,4,0,1,0,-8,0zM536,318a4,4,0,1,0,8,0a4,4,0,1,0,-8,0zM560,322a4,4,0,1,0,8,0a4,4,0,1,0,-8,0zM584,317a4,4,0,1,0,8,0a4,4,0,1,0,-8,0zM608,319a4,4,0,1,0,8,0a4,4,0,1,0,-8,0zM632,321a4,4,0,1,0,8,0a4,4,0,1,0,-8,0zM656,318a4,4,0,1,0,8,0a4,4,0,1,0,-8,0zM680,319a4,4,0,1,0,8,0a4,4,0,1,0,-8,0zM704,313a4,4,0,1,0,8,0a4,4,0,1,0,-8,0zM728,312a4,4,0,1,0,8,0a4,4,0,1,0,-8,0zM752,323a4,4,0,1,0,8,0a4,4,0,1,0,-8,0zM776,314a4,4,0,1,0,8,0a4,4,0,1,0,-8,0zM800,307a4,4,0,1,0,8,0a4,4,0,1,0,-8,0zM824,330a4,4,0,1,0,8,0a4,4,0,1,0,-8,0zM848,328a4,4,0,1,0,8,0a4,4,0,1,0,-8,0zM872,362a4,4,0,1,0,8,0a4,4,0,1,0,-8,0zM896,317a4,4,0,1,0,8,0a4,4,0,1,0,-8,0zM944,360a4,4,0,1,0,8,0a4,4,0,1,0,-8,0z" style="stroke: #00009a; fill: none;"></path>
    </g>
   </svg>
   <g>
    <g transform="translate(0,640)">
     <path d="M0,0h960" style="stroke: black; stroke-width: 1;"></path>
     <path d="M0,-24v24m24,-12v12m24,-12v12m24,-12v12m24,-12v12m24,-24v24m24,-12v12m24,-12v12m24,-12v12m24,-12v12m24,-24v24m24,-12v12m24,-12v12m24,-12v12m24,-12v12m24,-24v24m24,-12v12m24,-12v12m24,-12v12m24,-12v12m24,-24v24m24,-12v12m24,-12v12m24,-12v12m24,-12v12m24,-24v24m24,-12v12m24,-12v12m24,-12v12m24,-12v12m24,-24v24m24,-12v12m24,-12v12m24,-12v12m24,-12v12m24,-24v24m24,-12v12m24,-12v12m24,-12v12m24,-12v12m24,-24v24" style="stroke: black; stroke-width: 1;"></path>
     <g font-family="Arial" font-size="28" space="preserve">
      <text fill="black" text-anchor="middle" dy=".8em" transform="translate(0,6)">
       -4
      </text>
      <text fill="black" text-anchor="middle" dy=".8em" transform="translate(120,6)">
       -3
      </text>
      <text fill="black" text-anchor="middle" dy=".8em" transform="translate(240,6)">
       -2
      </text>
      <text fill="black" text-anchor="middle" dy=".8em" transform="translate(360,6)">
       -1
      </text>
      <text fill="black" text-anchor="middle" dy=".8em" transform="translate(480,6)">
       0
      </text>
      <text fill="black" text-anchor="middle" dy=".8em" transform="translate(600,6)">
       1
      </text>
      <text fill="black" text-anchor="middle" dy=".8em" transform="translate(720,6)">
       2
      </text>
      <text fill="black" text-anchor="middle" dy=".8em" transform="translate(840,6)">
       3
      </text>
      <text fill="black" text-anchor="middle" dy=".8em" transform="translate(960,6)">
       4
      </text>
     </g>
    </g>
    <g>
     <path d="M0,0v640" style="stroke: black; stroke-width: 1;"></path>
     <path d="M36,640h-36m18,-16h-18m18,-16h-18m18,-16h-18m18,-16h-18m36,-16h-36m18,-16h-18m18,-16h-18m18,-16h-18m18,-16h-18m36,-16h-36m18,-16h-18m18,-16h-18m18,-16h-18m18,-16h-18m36,-16h-36m18,-16h-18m18,-16h-18m18,-16h-18m18,-16h-18m36,-16h-36m18,-16h-18m18,-16h-18m18,-16h-18m18,-16h-18m36,-16h-36m18,-16h-18m18,-16h-18m18,-16h-18m18,-16h-18m36,-16h-36m18,-16h-18m18,-16h-18m18,-16h-18m18,-16h-18m36,-16h-36m18,-16h-18m18,-16h-18m18,-16h-18m18,-16h-18m36,-16h-36" style="stroke: black; stroke-width: 1;"></path>
     <g font-family="Arial" font-size="28" space="preserve">
      <text fill="black" text-anchor="end" dy=".4em" transform="translate(-4,640)">
       -4
      </text>
      <text fill="black" text-anchor="end" dy=".4em" transform="translate(-4,560)">
       -3
      </text>
      <text fill="black" text-anchor="end" dy=".4em" transform="translate(-4,480)">
       -2
      </text>
      <text fill="black" text-anchor="end" dy=".4em" transform="translate(-4,400)">
       -1
      </text>
      <text fill="black" text-anchor="end" dy=".4em" transform="translate(-4,320)">
       0
      </text>
      <text fill="black" text-anchor="end" dy=".4em" transform="translate(-4,240)">
       1
      </text>
      <text fill="black" text-anchor="end" dy=".4em" transform="translate(-4,160)">
       2
      </text>
      <text fill="black" text-anchor="end" dy=".4em" transform="translate(-4,80)">
       3
      </text>
      <text fill="black" text-anchor="end" dy=".4em" transform="translate(-4)">
       4
      </text>
     </g>
    </g>
   </g>
  </g>
  <g transform="translate(120,4)" font-family="Arial" font-size="40" space="preserve">
   <path d="M0,0H960V53H0Z" style="fill: none;"></path>
   <text fill="black" text-anchor="middle" dy=".8em" transform="translate(480)">
    py vs px
   </text>
  </g>
  <g transform="translate(936,52)" font-family="Arial" font-size="20" space="preserve">
   <path d="M0,0H240V212H0Z" style="fill: white; stroke: black; stroke-width: 1;"></path>
   <text fill="black" text-anchor="middle" dy=".4em" transform="translate(120,18)">
    hpxpy
   </text>
   <text fill="black" text-anchor="start" dy=".4em" transform="translate(12,53)">
    Entries
   </text>
   <text fill="black" text-anchor="end" dy=".4em" transform="translate(228,53)">
    25000
   </text>
   <text fill="black" text-anchor="start" dy=".4em" transform="translate(12,88)">
    Mean x
   </text>
   <text fill="black" text-anchor="end" dy=".4em" transform="translate(228,88)">
    0.003181
   </text>
   <text fill="black" text-anchor="start" dy=".4em" transform="translate(12,124)">
    Mean y
   </text>
   <text fill="black" text-anchor="end" dy=".4em" transform="translate(228,124)">
    0.009441
   </text>
   <text fill="black" text-anchor="start" dy=".4em" transform="translate(12,159)">
    Std Dev x
   </text>
   <text fill="black" text-anchor="end" dy=".4em" transform="translate(228,159)">
    1.004
   </text>
   <text fill="black" text-anchor="start" dy=".4em" transform="translate(12,194)">
    Std Dev y
   </text>
   <text fill="black" text-anchor="end" dy=".4em" transform="translate(228,194)">
    0.9972
   </text>
   <path d="M0,35h240" style="stroke: black; stroke-width: 1;"></path>
  </g>
 </g>
</svg>
